img/tmp/technology-1.svg

<svg fill="none" height="448" viewBox="0 0 320 448" width="320" xmlns="http://www.w3.org/2000/svg" xmlns:xlink="http://www.w3.org/1999/xlink"><clipPath id="a"><path d="m0 0h320v448h-320z"/></clipPath><mask id="b" height="538" maskUnits="userSpaceOnUse" width="320" x="0" y="-90"><rect fill="#fff" height="538" rx="10" width="320" y="-90"/></mask><g clip-path="url(#a)"><path d="m0 0h320v448h-320z" fill="#fff"/><g fill="#f0f6fd" fill-opacity=".7" mask="url(#b)"><path d="m108.986 428.695c3.648-8.426 6.033-17.214 7.152-26.097l18.095-6.045-2.583-20.571-2.583-20.57-18.988-1.427c-3.287-8.327-7.774-16.264-13.3841-23.518l8.4851-17.051-16.37-12.714-16.3331-12.718-14.4252 12.422c-8.4276-3.647-17.2164-6.031-26.1005-7.15l-6.0457-18.091-20.57382 2.583-20.57378 2.583-1.423 19.022c-8.3282 3.287-16.2669 7.774-23.5227 13.384l-17.0532-8.484-12.7163 16.368-12.7214 16.332 12.4239 14.422c-3.6485 8.426-6.0333 17.214-7.1523 26.096l-18.0946 6.046 2.5828 20.57 2.5827 20.571 19.0253 1.422c3.2866 8.327 7.7739 16.264 13.3841 23.518l-8.4855 17.051 16.3704 12.714 16.3704 12.713 14.4252-12.422c8.4276 3.647 17.21648 6.031 26.10053 7.15l6.04577 18.091 20.5737-2.583 20.5738-2.583 1.423-19.023c8.3283-3.286 16.2669-7.773 23.5227-13.383l17.0533 8.484 12.7165-16.369 12.716-16.368zm-120.7821 1.436c-22.1409-17.213-26.1397-49.134-8.9231-71.272 17.21657-22.138 49.1426-26.138 71.2835-8.925s26.1396 49.134 8.923 71.272c-17.2165 22.138-49.1426 26.137-71.2834 8.925z"/><path d="m390.658 167.44c3.523-8.138 5.827-16.625 6.907-25.204l17.476-5.838-2.495-19.867-2.494-19.8659-18.338-1.3781c-3.174-8.0418-7.508-15.7074-12.926-22.7134l8.195-16.4673-15.81-12.2784-15.774-12.2833-13.932 11.9974c-8.139-3.5227-16.627-5.8252-25.207-6.9053l-5.839-17.4722-19.869 2.4948-19.87 2.4949-1.374 18.3711c-8.043 3.174-15.71 7.5073-22.718 12.925l-16.469-8.193-12.281 15.8081-12.286 15.772 11.998 13.9288c-3.523 8.1378-5.827 16.6248-6.907 25.2038l-17.475 5.838 2.494 19.866 2.494 19.867 18.374 1.373c3.174 8.042 7.508 15.707 12.926 22.713l-8.195 16.468 15.81 12.278 15.81 12.278 13.932-11.997c8.139 3.523 16.627 5.825 25.207 6.905l5.839 17.473 19.869-2.495 19.87-2.495 1.374-18.371c8.044-3.174 15.71-7.507 22.718-12.925l16.469 8.193 12.282-15.808 12.281-15.808zm-116.648 1.386c-21.383-16.623-25.245-47.452-8.618-68.832 16.628-21.3803 47.461-25.2429 68.844-8.6192 21.383 16.6232 25.245 47.4522 8.618 68.8322-16.628 21.38-47.461 25.243-68.844 8.619z"/></g><path d="m84.8936 197.443c0-17.443 14.1406-31.584 31.5844-31.584h84.148c17.443 0 31.584 14.141 31.584 31.584v174.85c0 29.072-23.568 52.64-52.64 52.64h-42.036c-29.073 0-52.6404-23.568-52.6404-52.64z" fill="#fd5c00"/><path d="m118.744 199.723h78.6452v123.097h-78.6452z" fill="#3f8ae0"/><path d="m117.691 262.505c0 41.01-.536 59.664-.12 61.968.035.194.2.242.397.241 5.086-.008 72.467-.159 75.449-.159l1.581.085c.727.039 1.338-.54 1.338-1.268v-60.867-61.329c0-.702-.569-1.27-1.27-1.27l-38.301.002h-37.804c-.701 0-1.27.569-1.27 1.27zm53.922-59.783c0 .781.469 1.094 1.173.781.625-.234 1.172-.078 1.172.313 0 .469-.547.781-1.172.781-.626 0-1.173.547-1.173 1.172 0 .626-.39 1.173-.859 1.173-.391 0-.547-.391-.313-.86.313-.469-.156-1.016-1.094-1.25-.938-.235-1.641-.704-1.641-1.094 0-.391.469-.469 1.094-.235.625.235 1.329 0 1.719-.547.391-.625.235-.781-.469-.312-.703.39-.859.312-.468-.235.781-1.328 2.031-1.172 2.031.313zm-40.637 1.25c0 .469.625.547 1.329.313.781-.313 1.094-.235.703.078-.312.312-1.797.625-3.282.703-2.032 0-2.657-.234-2.657-1.25s.469-1.251 1.954-.938c1.094.156 1.953.703 1.953 1.094zm50.015.547c0 .782-.547 1.407-1.172 1.407-1.25 0-1.407-.547-.703-2.423.625-1.563 1.875-.859 1.875 1.016zm5.94.703c-1.407 1.251-1.407 1.251-.626-.312.34-.68.598-1.36.655-1.742.028-.195-.041-.47.136-.382.108.054.263.163.46.326.547.469.312 1.173-.625 2.11zm5.001-.781c0 .86-.625 1.407-1.563 1.485s-1.563-.313-1.563-1.016c0-.625.313-1.016.703-.703.391.234.938.078 1.251-.391.703-1.172 1.172-.938 1.172.625zm1.407 5.158c-.782.781-1.173.859-1.641.156-.469-.625-.782-.547-1.095.235-.312.859-.547.859-1.015 0-.547-.782-.86-.782-1.876 0-.781.625-1.25.703-1.25.234s-.626-1.016-1.329-1.172c-.781-.235 1.016-.391 3.908-.469 4.454-.078 5.157.078 4.298 1.016zm-62.754 7.502c.235.469-.39.781-1.484.781-1.876 0-4.377 1.798-4.377 3.205 0 .859.547.859 2.267-.079 1.016-.468 1.875-.39 3.047.469 3.126 2.188 1.72 5.783-2.344 5.783-4.689 0-5.236-8.752-.625-10.393 1.875-.704 2.969-.626 3.516.234zm12.895-.391c0 .235-.625 1.329-1.329 2.423-1.25 1.954-1.25 2.11 0 2.813 1.563.86 1.72 3.048.391 4.377-1.172 1.172-5.079 1.25-5.783 0-.391-.626 0-.704 1.172-.391 2.423.625 3.986-.078 3.986-1.876 0-.938-.547-1.485-1.563-1.485-1.876 0-2.032-1.016-.391-2.344 1.798-1.485 1.407-2.345-1.25-2.345-1.329 0-2.188-.312-1.876-.781.469-.781 6.643-1.094 6.643-.391zm40.95 75.961-.266 7.515c-.026.719.55 1.315 1.269 1.315h.794c1.719 0 1.954.157 1.016.782-.86.547-.547.781 1.407.781 1.563 0 2.422-.312 2.11-.781-.235-.469.234-.782 1.094-.782 1.563 0 1.563-.469 1.407-13.285-.079-7.346.078-13.285.468-13.285.313 0 .547 6.486.547 14.457v13.212c0 .722-.601 1.299-1.322 1.269l-4.304-.18-4.35-.178c-.734-.03-1.289-.674-1.211-1.404l.09-.84c.157-1.329-.078-2.11-.703-2.11-.781 0-.781-.235-.078-.938s.938-9.534 1.094-34.229l.156-33.213.547 26.57c.313 14.614.391 30.556.235 35.324zm-62.832-9.535c0 9.535-.156 11.332-1.172 11.332s-1.172-1.797-1.172-11.332c0-9.534.156-11.331 1.172-11.331s1.172 1.797 1.172 11.331zm60.565 13.676c.157.313-.156 1.094-.859 1.642-1.016.781-1.329.781-1.954-.157-.391-.625-.703-1.25-.703-1.485 0-.703 3.048-.703 3.516 0zm-12.425 1.485c0 1.407-3.439 2.97-6.721 3.048-.625.078-2.188.234-3.517.391-2.266.312-6.642-1.485-6.642-2.735 0-1.095 1.485-.704 2.188.625.547 1.016 1.172 1.094 3.517.469 1.641-.469 2.891-.547 2.891-.078 0 .433 6.827-2.144 8.031-2.965.133-.091.223-.108.234.053.019.257.019.71.019 1.192zm-27.196.547c1.251 1.641 3.673 2.423 4.611 1.485 1.172-1.25 4.923-.547 4.923.86 0 1.25-2.032 1.485-2.735.234-.391-.547-1.016-.391-2.032.469-1.328 1.25-1.563 1.25-3.516-.313-1.251-1.015-2.736-1.484-3.595-1.25-.86.313-1.407.078-1.485-.547 0-.547-.313-.313-.703.547-.469 1.094-.704 1.172-.704.313-.078-.626.313-1.563.704-1.954 1.016-1.016 3.829-.86 4.532.156zm-22.116 5.08c-.781 1.25 6.643.781 7.893-.469.704-.625 1.641-1.172 2.11-1.172.547 0 .469.312-.234.781-.485.304-.782.654-.818.905-.018.129.084.211.214.229 2.451.334 29.176 1.058 45.383 1.133 8.205.078 8.362.078 8.362 1.875 0 1.563-.391 1.876-2.345 1.876-1.109 0-1.91-.246-1.914-.52-.001-.076.08-.145.052-.216-.078-.196-.798-.159-1.811.111-3.985 1.094-12.191.312-13.363-1.251-1.016-1.328-1.094-1.328-.625.156.39 1.407.078 1.563-3.048 1.563-1.954 0-3.517-.234-3.517-.547 0-.781-2.579.235-3.36 1.251-.469.547-.547.312-.235-.469.235-.782.079-1.563-.312-1.798-.469-.312-.782-.078-.782.313 0 .469-.937.86-2.032.86-.982 0-1.649-.252-1.549-.586.025-.086.108-.16.089-.248-.115-.54-3.568.274-5.104 1.224-.391.235-.781-.156-.86-.937 0-1.329-.078-1.329-.625.078-.547 1.328-.625 1.328-1.797.156-1.407-1.407-2.579-1.719-1.798-.469.704 1.094-.625 1.016-1.797-.156-.625-.625-.938-.625-.938-.078 0 1.016-3.751 1.875-4.298.938-.234-.313-3.048-.548-6.252-.469l-4.557.121c-.715.019-1.304-.555-1.304-1.269v-1.666c0-1.797.313-2.813.781-2.5.469.312.626.859.391 1.25z" fill="#f0f6fd"/><path d="m126.53 222.338c-1.407.547-1.25 3.126.156 3.673 1.954.703 3.595-.391 3.361-2.188-.235-1.641-1.72-2.266-3.517-1.485z" fill="#f0f6fd"/><g fill="#3f8ae0"><path d="m131.555 354.295 10.512 10.513c.981.981 1.004 2.565.051 3.574l-10.508 11.126c-.802.849-2.077 1.049-3.101.486l-12.911-7.101c-.82-.451-1.329-1.312-1.329-2.247v-8.084c0-.971.549-1.859 1.418-2.293l12.907-6.454c.988-.494 2.18-.3 2.961.48z"/><path d="m182.474 354.295-10.512 10.513c-.982.981-1.004 2.565-.052 3.574l10.509 11.126c.802.849 2.076 1.049 3.1.486l12.911-7.101c.82-.451 1.329-1.312 1.329-2.247v-8.084c0-.971-.549-1.859-1.418-2.293l-12.907-6.454c-.987-.494-2.18-.3-2.96.48z"/><path d="m167.531 363.379h-20.245c-.68 0-1.332-.27-1.813-.751l-10.765-10.765c-1.095-1.095-.977-2.902.25-3.846l7.379-5.677c.448-.344.998-.531 1.564-.531h27.016c.566 0 1.115.187 1.564.531l7.379 5.677c1.227.944 1.345 2.751.25 3.846l-10.765 10.765c-.481.481-1.133.751-1.814.751z"/><path d="m166.734 370.566h-20.245c-.681 0-1.333.27-1.814.751l-10.765 10.765c-1.095 1.095-.977 2.903.25 3.846l7.379 5.677c.449.345.998.532 1.564.532h27.016c.566 0 1.116-.187 1.564-.532l7.379-5.677c1.227-.943 1.345-2.751.25-3.846l-10.765-10.765c-.481-.481-1.133-.751-1.813-.751z"/></g></g></svg>

<svg width="320" height="448" viewBox="0 0 320 448" fill="none" xmlns="http://www.w3.org/2000/svg">
<g clip-path="url(#clip0_1501_7695)">
<rect width="320" height="448" fill="white"/>
<mask id="mask0_1501_7695" style="mask-type:alpha" maskUnits="userSpaceOnUse" x="0" y="-90" width="320" height="538">
<rect y="-90" width="320" height="538" rx="10" fill="white"/>
</mask>
<g mask="url(#mask0_1501_7695)">
<path d="M108.986 428.699C112.635 420.272 115.019 411.485 116.138 402.602L134.233 396.557L131.65 375.986L129.067 355.416L110.08 353.989C106.793 345.662 102.306 337.725 96.6954 330.471L105.181 313.42L88.8105 300.706L72.4774 287.988L58.0522 300.41C49.6246 296.763 40.8357 294.378 31.9517 293.26L25.906 275.169L5.33218 277.752L-15.2416 280.335L-16.6646 299.357C-24.9929 302.644 -32.9315 307.131 -40.1873 312.74L-57.2405 304.257L-69.9569 320.625L-82.6782 336.956L-70.2543 351.379C-73.9028 359.805 -76.2876 368.593 -77.4066 377.475L-95.5012 383.521L-92.9185 404.091L-90.3357 424.662L-71.3105 426.084C-68.0238 434.41 -63.5366 442.348 -57.9263 449.602L-66.4118 466.653L-50.0414 479.366L-33.671 492.08L-19.2458 479.657C-10.8182 483.305 -2.02933 485.689 6.85471 486.807L12.9005 504.899L33.4742 502.316L54.048 499.732L55.471 480.71C63.7993 477.424 71.7379 472.937 78.9937 467.327L96.047 475.81L108.763 459.442L121.48 443.074L108.986 428.699ZM-11.7957 430.134C-33.9365 412.922 -37.9353 381.001 -20.7187 358.863C-3.50214 336.725 28.4239 332.725 50.5648 349.938C72.7056 367.151 76.7044 399.072 59.4878 421.21C42.2712 443.348 10.3452 447.347 -11.7957 430.134Z" fill="#F0F6FD" fill-opacity="0.7"/>
<path d="M390.658 167.44C394.181 159.302 396.485 150.815 397.565 142.236L415.041 136.398L412.546 116.531L410.052 96.6651L391.714 95.287C388.54 87.2452 384.206 79.5796 378.788 72.5736L386.983 56.1063L371.173 43.8279L355.399 31.5446L341.467 43.542C333.328 40.0193 324.84 37.7168 316.26 36.6367L310.421 19.1645L290.552 21.6593L270.682 24.1542L269.308 42.5253C261.265 45.6993 253.598 50.0326 246.59 55.4503L230.121 47.2573L217.84 63.0654L205.554 78.8374L217.552 92.7662C214.029 100.904 211.725 109.391 210.645 117.97L193.17 123.808L195.664 143.674L198.158 163.541L216.532 164.914C219.706 172.956 224.04 180.621 229.458 187.627L221.263 204.095L237.073 216.373L252.883 228.651L266.815 216.654C274.954 220.177 283.442 222.479 292.022 223.559L297.861 241.032L317.73 238.537L337.6 236.042L338.974 217.671C347.018 214.497 354.684 210.164 361.692 204.746L378.161 212.939L390.443 197.131L402.724 181.323L390.658 167.44ZM274.01 168.826C252.627 152.203 248.765 121.374 265.392 99.994C282.02 78.6137 312.853 74.7511 334.236 91.3748C355.619 107.998 359.481 138.827 342.854 160.207C326.226 181.587 295.393 185.45 274.01 168.826Z" fill="#F0F6FD" fill-opacity="0.7"/>
</g>
<path d="M84.8931 197.443C84.8931 180 99.0337 165.859 116.477 165.859H200.625C218.069 165.859 232.209 180 232.209 197.443V372.293C232.209 401.365 208.642 424.933 179.569 424.933H137.533C108.461 424.933 84.8931 401.365 84.8931 372.293V197.443Z" fill="#3F8AE0"/>
<rect x="118.745" y="199.727" width="78.6452" height="123.097" fill="#3F8AE0"/>
<path d="M117.691 262.505C117.691 303.515 117.156 322.169 117.572 324.473C117.607 324.667 117.771 324.715 117.969 324.714C123.054 324.706 190.436 324.555 193.417 324.555L194.998 324.64C195.725 324.679 196.337 324.1 196.337 323.372V262.505V201.176C196.337 200.474 195.768 199.906 195.066 199.906L156.766 199.908H118.961C118.26 199.908 117.691 200.477 117.691 201.178V262.505ZM171.614 202.722C171.614 203.503 172.083 203.816 172.786 203.503C173.411 203.269 173.958 203.425 173.958 203.816C173.958 204.285 173.411 204.597 172.786 204.597C172.161 204.597 171.614 205.144 171.614 205.769C171.614 206.395 171.223 206.942 170.754 206.942C170.364 206.942 170.207 206.551 170.442 206.082C170.754 205.613 170.285 205.066 169.348 204.832C168.41 204.597 167.706 204.128 167.706 203.738C167.706 203.347 168.175 203.269 168.801 203.503C169.426 203.738 170.129 203.503 170.52 202.956C170.911 202.331 170.754 202.175 170.051 202.644C169.348 203.034 169.191 202.956 169.582 202.409C170.364 201.081 171.614 201.237 171.614 202.722ZM130.977 203.972C130.977 204.441 131.602 204.519 132.305 204.285C133.087 203.972 133.399 204.05 133.009 204.363C132.696 204.675 131.211 204.988 129.726 205.066C127.694 205.066 127.069 204.832 127.069 203.816C127.069 202.8 127.538 202.565 129.023 202.878C130.117 203.034 130.977 203.581 130.977 203.972ZM180.992 204.519C180.992 205.301 180.445 205.926 179.819 205.926C178.569 205.926 178.413 205.379 179.116 203.503C179.741 201.94 180.992 202.644 180.992 204.519ZM186.931 205.222C185.524 206.473 185.524 206.473 186.306 204.91C186.646 204.23 186.904 203.55 186.96 203.168C186.989 202.973 186.92 202.698 187.096 202.786C187.205 202.84 187.36 202.949 187.556 203.112C188.103 203.581 187.869 204.285 186.931 205.222ZM191.933 204.441C191.933 205.301 191.307 205.848 190.37 205.926C189.432 206.004 188.807 205.613 188.807 204.91C188.807 204.285 189.119 203.894 189.51 204.207C189.901 204.441 190.448 204.285 190.76 203.816C191.464 202.644 191.933 202.878 191.933 204.441ZM193.339 209.599C192.558 210.38 192.167 210.458 191.698 209.755C191.229 209.13 190.917 209.208 190.604 209.99C190.291 210.849 190.057 210.849 189.588 209.99C189.041 209.208 188.728 209.208 187.712 209.99C186.931 210.615 186.462 210.693 186.462 210.224C186.462 209.755 185.837 209.208 185.134 209.052C184.352 208.817 186.15 208.661 189.041 208.583C193.495 208.505 194.199 208.661 193.339 209.599ZM130.586 217.101C130.82 217.57 130.195 217.882 129.101 217.882C127.226 217.882 124.725 219.68 124.725 221.087C124.725 221.946 125.272 221.946 126.991 221.008C128.007 220.54 128.867 220.618 130.039 221.477C133.165 223.665 131.758 227.26 127.694 227.26C123.006 227.26 122.459 218.508 127.069 216.867C128.945 216.163 130.039 216.241 130.586 217.101ZM143.48 216.71C143.48 216.945 142.855 218.039 142.152 219.133C140.902 221.087 140.902 221.243 142.152 221.946C143.715 222.806 143.871 224.994 142.543 226.323C141.37 227.495 137.463 227.573 136.76 226.323C136.369 225.697 136.76 225.619 137.932 225.932C140.355 226.557 141.918 225.854 141.918 224.056C141.918 223.118 141.37 222.571 140.355 222.571C138.479 222.571 138.323 221.555 139.964 220.227C141.761 218.742 141.37 217.882 138.713 217.882C137.385 217.882 136.525 217.57 136.838 217.101C137.307 216.32 143.48 216.007 143.48 216.71ZM184.43 292.671L184.164 300.186C184.139 300.905 184.714 301.501 185.433 301.501H186.228C187.947 301.501 188.181 301.658 187.244 302.283C186.384 302.83 186.697 303.064 188.65 303.064C190.213 303.064 191.073 302.752 190.76 302.283C190.526 301.814 190.995 301.501 191.854 301.501C193.417 301.501 193.417 301.032 193.261 288.216C193.183 280.87 193.339 274.931 193.73 274.931C194.043 274.931 194.277 281.417 194.277 289.388V302.6C194.277 303.322 193.676 303.899 192.954 303.869L188.65 303.689L184.301 303.511C183.567 303.481 183.012 302.837 183.09 302.107L183.18 301.267C183.336 299.938 183.102 299.157 182.477 299.157C181.695 299.157 181.695 298.922 182.398 298.219C183.102 297.516 183.336 288.685 183.492 263.99L183.649 230.777L184.196 257.347C184.508 271.961 184.587 287.903 184.43 292.671ZM121.599 283.136C121.599 292.671 121.443 294.468 120.427 294.468C119.411 294.468 119.254 292.671 119.254 283.136C119.254 273.602 119.411 271.805 120.427 271.805C121.443 271.805 121.599 273.602 121.599 283.136ZM182.164 296.812C182.32 297.125 182.008 297.906 181.304 298.454C180.288 299.235 179.976 299.235 179.351 298.297C178.96 297.672 178.647 297.047 178.647 296.812C178.647 296.109 181.695 296.109 182.164 296.812ZM169.738 298.297C169.738 299.704 166.3 301.267 163.018 301.345C162.392 301.423 160.829 301.579 159.501 301.736C157.235 302.048 152.858 300.251 152.858 299.001C152.858 297.906 154.343 298.297 155.046 299.626C155.593 300.642 156.219 300.72 158.563 300.095C160.204 299.626 161.455 299.548 161.455 300.017C161.455 300.45 168.281 297.873 169.485 297.052C169.619 296.961 169.708 296.944 169.72 297.105C169.738 297.362 169.738 297.815 169.738 298.297ZM142.543 298.844C143.793 300.485 146.216 301.267 147.153 300.329C148.326 299.079 152.077 299.782 152.077 301.189C152.077 302.439 150.045 302.674 149.342 301.423C148.951 300.876 148.326 301.032 147.31 301.892C145.981 303.142 145.747 303.142 143.793 301.579C142.543 300.564 141.058 300.095 140.198 300.329C139.339 300.642 138.792 300.407 138.713 299.782C138.713 299.235 138.401 299.469 138.01 300.329C137.541 301.423 137.307 301.501 137.307 300.642C137.229 300.017 137.619 299.079 138.01 298.688C139.026 297.672 141.839 297.828 142.543 298.844ZM120.427 303.924C119.645 305.174 127.069 304.705 128.32 303.455C129.023 302.83 129.961 302.283 130.43 302.283C130.977 302.283 130.899 302.595 130.195 303.064C129.71 303.368 129.413 303.718 129.378 303.969C129.359 304.098 129.462 304.18 129.591 304.198C132.043 304.532 158.767 305.256 174.974 305.331C183.18 305.409 183.336 305.409 183.336 307.206C183.336 308.769 182.945 309.082 180.992 309.082C179.883 309.082 179.081 308.836 179.078 308.562C179.076 308.486 179.157 308.417 179.129 308.346C179.052 308.15 178.331 308.187 177.319 308.457C173.333 309.551 165.128 308.769 163.955 307.206C162.939 305.878 162.861 305.878 163.33 307.362C163.721 308.769 163.408 308.925 160.282 308.925C158.329 308.925 156.766 308.691 156.766 308.378C156.766 307.597 154.187 308.613 153.405 309.629C152.936 310.176 152.858 309.941 153.171 309.16C153.405 308.378 153.249 307.597 152.858 307.362C152.389 307.05 152.077 307.284 152.077 307.675C152.077 308.144 151.139 308.535 150.045 308.535C149.063 308.535 148.396 308.283 148.495 307.949C148.521 307.863 148.604 307.789 148.585 307.701C148.47 307.161 145.017 307.975 143.48 308.925C143.09 309.16 142.699 308.769 142.621 307.988C142.621 306.659 142.543 306.659 141.996 308.066C141.449 309.394 141.37 309.394 140.198 308.222C138.792 306.815 137.619 306.503 138.401 307.753C139.104 308.847 137.776 308.769 136.603 307.597C135.978 306.972 135.666 306.972 135.666 307.519C135.666 308.535 131.915 309.394 131.367 308.457C131.133 308.144 128.32 307.909 125.116 307.988L120.558 308.109C119.844 308.128 119.254 307.554 119.254 306.84V305.174C119.254 303.377 119.567 302.361 120.036 302.674C120.505 302.986 120.661 303.533 120.427 303.924Z" fill="#F0F6FD"/>
<path d="M126.53 222.338C125.124 222.885 125.28 225.464 126.687 226.011C128.64 226.714 130.282 225.62 130.047 223.823C129.813 222.182 128.328 221.557 126.53 222.338Z" fill="#F0F6FD"/>
<path d="M131.555 354.291L142.067 364.804C143.049 365.785 143.071 367.369 142.118 368.378L131.61 379.504C130.808 380.353 129.533 380.553 128.51 379.99L115.598 372.889C114.779 372.438 114.27 371.577 114.27 370.642V362.558C114.27 361.587 114.819 360.699 115.687 360.265L128.595 353.811C129.582 353.317 130.775 353.511 131.555 354.291Z" fill="#FD5C00"/>
<path d="M182.474 354.291L171.962 364.804C170.98 365.785 170.958 367.369 171.91 368.378L182.419 379.504C183.221 380.353 184.495 380.553 185.519 379.99L198.43 372.889C199.25 372.438 199.759 371.577 199.759 370.642V362.558C199.759 361.587 199.21 360.699 198.341 360.265L185.434 353.811C184.447 353.317 183.254 353.511 182.474 354.291Z" fill="#FD5C00"/>
<path d="M167.531 363.375H147.286C146.606 363.375 145.954 363.105 145.473 362.624L134.708 351.859C133.613 350.764 133.731 348.957 134.958 348.013L142.337 342.337C142.785 341.992 143.335 341.805 143.901 341.805H170.917C171.483 341.805 172.032 341.992 172.481 342.337L179.86 348.013C181.087 348.957 181.205 350.764 180.11 351.859L169.345 362.624C168.864 363.105 168.212 363.375 167.531 363.375Z" fill="#FD5C00"/>
<path d="M166.734 370.562H146.489C145.808 370.562 145.156 370.832 144.675 371.313L133.91 382.078C132.815 383.173 132.933 384.981 134.16 385.924L141.539 391.601C141.988 391.946 142.537 392.133 143.103 392.133H170.119C170.685 392.133 171.235 391.946 171.683 391.601L179.062 385.924C180.289 384.981 180.407 383.173 179.312 382.078L168.547 371.313C168.066 370.832 167.414 370.562 166.734 370.562Z" fill="#FD5C00"/>
</g>
<defs>
<clipPath id="clip0_1501_7695">
<rect width="320" height="448" fill="white"/>
</clipPath>
</defs>
</svg>
